svgs/sharp-solid/message-captions.svg

<svg xmlns="http://www.w3.org/2000/svg" viewBox="0 0 512 512"><!--! Font Awesome Pro 6.6.0 by @fontawesome - https://fontawesome.com License - https://fontawesome.com/license (Commercial License) Copyright 2024 Fonticons, Inc. --><path d="M0 0L512 0l0 416-208 0L160 512l0-96L0 416 0 0zM120 192l-24 0 0 48 24 0 144 0 24 0 0-48-24 0-144 0zm224 0l-24 0 0 48 24 0 48 0 24 0 0-48-24 0-48 0zM120 272l-24 0 0 48 24 0 48 0 24 0 0-48-24 0-48 0zm128 0l-24 0 0 48 24 0 144 0 24 0 0-48-24 0-144 0z"/></svg>

<svg xmlns="http://www.w3.org/2000/svg" viewBox="0 0 512 512"><!--! Font Awesome Pro 6.4.2 by @fontawesome - https://fontawesome.com License - https://fontawesome.com/license (Commercial License) Copyright 2023 Fonticons, Inc. --><path d="M0 0H512V416H304L160 512V416H0V0zM120 192H96v48h24H264h24V192H264 120zm224 0H320v48h24 48 24V192H392 344zM120 272H96v48h24 48 24V272H168 120zm128 0H224v48h24H392h24V272H392 248z"/></svg>
